X: 1
T: Poll Ha'Penny
R: hornpipe
M: 4/4
L: 1/8
K: Amix
(3GAB|=cAAG A2 (3AB=c|(3d=cB (3AGF G2 (3B^cd|ed^cA d^cAG|~A3G A2de|
~f3d ~e3c|d2 (3Bcd efge|aged (3=cBA GB|~A3G A2:|
|:ef|~g3f gfef|g2ga gedg|eaag ~a3g|eaag a2ag|
~f3d ~e3c|d2 (3Bcd efge|aged (3=cBA GB|~A3G A2:|


Tune 841	Setting 14004

